X: 18068
T: Humours Of Ballingarry, The
R: jig
M: 6/8
K: Gmajor
|:A|BGG dGG|cAG FGA|BGG dGG|cAF G2A|
BGG dGG|cAG FGA|def gdB|cAF G2:|
|:B|def gfg|edc BAG|A2a aga|bge e2d|
def gfg|edc BCA|GBd gdB|cAF G2:|

